X:1
T:Venite post me
T:José de Torres y Martinez Bravo [1665-1738]
T:The Bible, gospel of Saint Matthew, chapter 4, verses 19 and 20.
T:Venite post me
T:Copyright © 
T:Copyright © 
C:José de Torres y Martinez Bravo [1665-1738]
Z:The Bible, gospel of Saint Matthew,
Z:chapter 4, verses 19 and 20.
Z:Copyright ©
%%score [ 1 2 ]
L:1/8
M:4/4
K:F
V:1 treble nm="Soprano" snm="S."
V:2 treble nm="Soprano" snm="S."
V:1
 z2 f2 e2 de | f2 AB cABG | A2 a4 g2- | g2 fe df ed | ^ced!courtesy!=c BdcB | Ac BA GBAG | %6
w: Ve- ni- te post|me, ve- ni- * * * *|te, ve- ni-|* te post me, _ ve- *|ni- * * * * * * *|te, _ ve- * ni- * * *|
 F>G AB A2 G>A | Ffff d4 | z bbb g2 gf | _efed cdcB | A>A B2 z2 de | fc d/e/d/e/ f>e d2 | %12
w: * * * * * te post|me, fa- ci- am vos,|fa- ci- am vos fi- *||* e- ri pis- ca-|to- res ho- * * * * mi- num,|
 z2 ef gd e/f/e/f/ | g>f e2 ^c2 d2 | ^c2 d2 c>c d2 | z2 =B4 c2 | c2 B2 c2 e2- | e2 f2 f2 e2 | %18
w: fi- * * * * * * *|* e- ri pis- ca-|to- res ho- mi- num,|at _|il- * li, at|_ _ il- *|
 fc c>c df f>f | g>f _e>d c>c d2 | z cdd (e2 f2) | g>g aa e>e f2 | ^c>c d2 A2 B2- | BB A2 G3 G | %24
w: li con- ti- nu- o, con- ti- nu-|o re- lic- tis re- ti- bus,|se- cu- ti sunt _|do- mi- num, se- cu- ti sunt|do- mi- num, se- cu-|* ti sunt do- mi-|
 F16 |] %25
w: num.|
V:2
 z8 | z2 f2 e2 de | f2 AB cABG | A2 a4 g2- | g2 fe dfed | c_e dc BdcB | A>B cd c2 B>c | A4 z fff | %8
w: |Ve- ni- te post|me, ve- ni- * * * *|te, ve- ni-||te, _ ve- * ni- * * *|* * * * * te post|me, fa- ci- am|
 d4 z bbb | g2 gf _efed | c>c d2 A2 B2 | A2 B2 z4 | =B2 c2 B2 c2 | =B>B c2 z2 fg | %14
w: vos, fa- ci- am|vos fi- * * * * *|* e- ri pis- ca-|to- res,|pis- ca- to- res|ho- mi- num, pis- ca-|
 ae f/g/f/g/ a>g f2 | z2 d4 _e2 | d4 c2 G2- | G2 A2 G4 | FA A>A Bd d>d | _e>d c>B A>A B2 | %20
w: to- * res _ _ _ ho- mi- num,|at _|il- li, at|_ at il-|li con- ti- nu- o, con- ti- nu-|o re- lic- tis re- ti- bus|
 z4 z cdd | (e2 f2) g>g aa | e>e f2 c2 d2 | ed f4 e2 | f16 |] %25
w: se- cu- ti|sunt _ do- mi- num, se-|cu- ti sunt do- *|* * * mi-|num.|

